assets/Twitch.svg

<svg xmlns="http://www.w3.org/2000/svg" width="48" height="48"><path fill="#FFF" d="M12 32V8h27v18l-6 6h-9l-6 6v-6z"/><path fill="#8E24AA" d="m9 5-3 7.123V38h9v5h5l5-5h7l10-10V5H9zm29 21-5 5h-9l-5 5v-5h-6V9h25v17z"/><path fill="#8E24AA" d="M32 25h-5V15h5v10zm-8 0h-5V15h5v10z"/></svg>

<svg xmlns="http://www.w3.org/2000/svg"  viewBox="0 0 48 48" width="48px" height="48px"><path fill="#FFF" d="M12 32L12 8 39 8 39 26 33 32 24 32 18 38 18 32z"/><path fill="#8E24AA" d="M9,5l-3,7.123V38h9v5h5l5-5h7l10-10V5H9z M38,26l-5,5h-9l-5,5v-5h-6V9h25V26z"/><path fill="#8E24AA" d="M32 25h-5V15h5V25zM24 25h-5V15h5V25z"/></svg>
